X:1
T:Title
%%score ( 1 2 ) { 3 | 4 }
L:1/8
Q:1/4=100
M:4/4
K:F
V:1 treble nm="Grand Piano, Soprano"
V:2 treble 
V:3 treble nm="Choir Pad, Nigeria, 10.7.10.7 D"
V:4 bass 
V:1
 [Ac]2 [Ac][Ac] [Ac]2 [FA][Ac] | [Ac][GB][FA][EG] [FA]4 | [Fd]2 [DB][Fd] [Fc]2 [CF][FA] | %3
w: By~James~Holmes~Rosecrans,~1897 * * * * *|||
 [EG]6 z2 | [Ac]2 [Ac][Ac] [Ac]2 [FA][Ac] | [Ac][GB][FA][EG] [FA]4 | %6
w: |||
 [Fd]2 [DB][Fd] [Fc]2 [CE][CE] | [CF]6 z2 | D-[DB][DB][DB] [DB][Fd][Fd][Fd] | dc[Fc][FA] [Fc]4 | %10
w: ||||
 cG[EG][FA] [GB][FA][GB][Ec] | [FA]6 z2 | FB[DB][DB] [DB][Fd][Fd][Fc] | dc[Fc][FA] [Fc]4 | %14
w: ||||
 cG[EG][FA] [GB]2 [FA][EG] | F8 |] %16
w: ||
V:2
 x8 | x8 | x8 | x8 | x8 | x8 | x8 | x8 | .F2 z2 z4 | F2 z2 z4 | E2 z2 z4 | x8 | D2 z2 z4 | %13
 F2 z2 z4 | E2 z2 z4 | x8 |] %16
V:3
 F2 FF- FFCF | FCCC C4 | B,2 F,B, A,2 A,[K:treble]C | C6 z2 | F2 FF- FFCF | FCCC C4 | %6
 B,2 F,B, A,2 G,B, | A,6 z2 | B,F,F,F, F,B,B,B, | B,A,A,C A,4 | G,[K:treble]CCC C2 CC | C6 z2 | %12
 B,F,F,F, F,B,B,B, | B,A,A,C A,4 | G,[K:treble]CCC C2 CB, | A,8 |] %16
V:4
 F,2 F,F,- F,F,F,F, | C,2 C,C, F,4 | B,,2 B,,B,, F,2 F,F, | C,6 z2 | F,2 F,F,- F,F,F,F, | %5
 C,2 C,C, F,4 | B,,2 B,,B,, C,2 C,C, | F,6 z2 | B,,2 F,,F,, D,2 B,,B,, | F,2 F,F, F,4 | %10
 C,2 C,C, C,2 C,C, | F,6 z2 | B,,2 B,,B,, B,,2 B,,B,, | F,2 F,F, F,4 | C,2 C,C, C,2 C,C, | F,8 |] %16

